X:1
T:Title
%%score { ( 1 4 5 ) | ( 2 3 ) }
L:1/8
Q:1/4=110
M:3/4
K:G
V:1 treble nm="Grand Piano"
V:4 treble 
V:5 treble 
V:2 bass 
V:3 bass 
V:1
 [GB]3 B B2 | [DB]2 G2 A2 | [DB]2 B2 B2 | [Fc]6 | [Ac]3 c c2 | [Fc]2 c2 c2 | [DB]2 B2 [Ac]2 | %7
w: D.~B.~Towner * *|||||||
 [Bd]6 | [Bd]4 z2 | [GB]2 [FA]2 [GB]2 | [Ac]2 [Ec]2 [Ec]2 | [ce]6 | [Bd]3 [Ac] [GB]2 | %13
w: ||||||
 [Fc]2 c2 c2 | B2 d2 [Ac]2 | [GB]6 | [FA]3 [FA] [FA]2 | [DA]2 [A,DF]2 [CD]2 | [B,D]2 [DG]2 [DFA]2 | %19
w: ||||||
 [DGB]6 | [EGB]3 [EGB] [EGB]2 | [^DFB]2 [B,DF]2 [A,DF]2 | [^DB]2 [DB]2 [DA]2 | [EG]6 | %24
w: |||||
 [EG]3 [EG] [EG]2 | [EA]2 [EG]2 [G,CE]2 | [B,D]2 [B,EG]2 [EA]2 | [^DFB]6 | [EAc]3 [DGB] [CEA]2 | %29
w: |||||
 [Gd]2 [GB]2 G2 | D2 B2 A2 | [B,DG]6 |] %32
w: |||
V:2
 z2 z F E2 | z2 B,2 C2 | z2[K:treble] G2 E2 | [D,A,]6 | F,3[K:treble] [G,G] [A,F]2 | %5
 A,2 [G,E]2 [F,D]2 | G,2- [G,-G]2 [D,G,]2 | G,6 | G,,2 z[K:treble] [DA] [G,DG]2 | %9
 [D,D]2 [D,D]2 [D,D]2 | [A,,A,]2 [A,,A,]2 [C,A,]2 | [C,G,]6 | G,4 z2 | D,2- [D,-A,E]2 [D,A,F]2 | %14
 G2 B2[K:bass] [D,F,]2 | [G,,D,]6 | [D,C]3 [D,B,] [D,A,]2 | [D,F,]2 D,2 D,2 | G,,2 B,,2 D,2 | G,6 | %20
 E,3 E, E,2 | B,,2 B,,2 B,,2 | [B,,F,]2 [B,,F,]2 [B,,F,]2 | [E,G,]6 | [C,C]3 [C,C] [C,C]2 | %25
 [C,C]2 [C,C]2 C,2 | G,2 E,2 C,2 | B,,6 | A,,3 B,, C,2 | [D,B,]2 [D,D]2 [D,B,D]2 | %30
 [D,G,B,]2 [D,G,D]2 [D,CD]2 | [G,,G,]6 |] %32
V:3
 [G,,G,]6 | [G,,G,]6 | [G,,G,]6[K:treble] | x6 | D,6[K:treble] | D,6 | G,,4 z2 | z2 D,2 G,,2 | %8
 G,4[K:treble] z2 | x6 | x6 | x6 | D,3- [D,-F,] [D,G,]2 | A,2 z2 z2 | G,4[K:bass] z2 | x6 | x6 | %17
 x6 | x6 | x6 | x6 | x6 | x6 | x6 | x6 | x6 | x6 | x6 | x6 | x6 | x6 | x6 |] %32
V:4
 x6 | x6 | x6 | x6 | x6 | x6 | x6 | x6 | z2 z c B2 | x6 | x6 | x6 | x6 | x6 | x6 | x6 | x6 | x6 | %18
 x6 | x6 | x6 | x6 | x6 | x6 | x6 | x6 | x6 | x6 | x6 | x6 | x6 | x6 |] %32
V:5
 x6 | x6 | x6 | x6 | x6 | x6 | x6 | x6 | z2 D,2 z2 | x6 | x6 | x6 | x6 | x6 | x6 | x6 | x6 | x6 | %18
 x6 | x6 | x6 | x6 | x6 | x6 | x6 | x6 | x6 | x6 | x6 | x6 | x6 | x6 |] %32

